markup/images/icon43.svg

<svg xmlns="http://www.w3.org/2000/svg" width="33" height="28"><path fill-rule="evenodd" fill="#FFF" d="M32.35 28H19.319a.642.642 0 0 1-.65-.635c0-.35.291-.634.65-.634H31.7v-1.597H1.3v1.597h11.8c.359 0 .65.284.65.634a.642.642 0 0 1-.65.635H.65a.642.642 0 0 1-.65-.635V.634C0 .284.291 0 .65 0h31.7c.359 0 .65.284.65.634v26.731a.642.642 0 0 1-.65.635zM17.218 17.796c1.747-.302 3.078-1.794 3.078-3.586 0-1.79-1.331-3.282-3.078-3.583v7.169zM1.3 15.885h1.313v-3.314H1.3v3.314zm0-4.583h1.963c.359 0 .65.284.65.634v4.584c0 .35-.291.634-.65.634H1.3v2.497h3.925V8.771H1.3v2.531zm0-3.8h4.575c.359 0 .65.284.65.635v2.867c1.317.33 2.303 1.642 2.303 3.206 0 .859-.296 1.666-.833 2.273a2.857 2.857 0 0 1-1.47.9v2.903c0 .35-.291.634-.65.634H1.3v2.945h14.618v-4.786c-2.467-.313-4.379-2.376-4.379-4.869 0-2.491 1.912-4.554 4.379-4.866V4.145H1.3v3.357zm5.225 4.852v3.678c.589-.303 1.003-1.005 1.003-1.822 0-.831-.414-1.547-1.003-1.856zm9.393 5.442v-7.169c-1.747.301-3.079 1.793-3.079 3.583 0 1.792 1.332 3.284 3.079 3.586zM31.7 1.269H1.3v1.607h30.4V1.269zm0 19.651h-4.577a.642.642 0 0 1-.65-.634v-2.903a2.857 2.857 0 0 1-1.469-.9c-.537-.607-.832-1.414-.832-2.273 0-1.564.985-2.875 2.301-3.206V8.137c0-.351.291-.635.65-.635H31.7V4.145H17.218v5.199c2.467.312 4.378 2.375 4.378 4.866 0 2.493-1.911 4.556-4.378 4.869v4.786H31.7V20.92zm-1.964-3.766a.642.642 0 0 1-.65-.634v-4.583c0-.351.291-.635.65-.635H31.7V8.771h-3.927v10.88H31.7v-2.497h-1.964zm1.964-1.269v-3.314h-1.314v3.314H31.7zm-5.227.147v-3.677c-.588.309-1.001 1.024-1.001 1.855 0 .816.413 1.518 1.001 1.822zm-9.974 10.699h.02c.359 0 .65.284.65.634a.642.642 0 0 1-.65.635h-.02a.642.642 0 0 1-.65-.635c0-.35.291-.634.65-.634z"/></svg>

<svg 
 xmlns="http://www.w3.org/2000/svg"
 xmlns:xlink="http://www.w3.org/1999/xlink"
 width="33px" height="28px">
<path fill-rule="evenodd"  fill="rgb(255, 255, 255)"
 d="M32.350,28.000 L19.319,28.000 C18.960,28.000 18.669,27.716 18.669,27.365 C18.669,27.015 18.960,26.731 19.319,26.731 L31.700,26.731 L31.700,25.134 L1.300,25.134 L1.300,26.731 L13.100,26.731 C13.459,26.731 13.750,27.015 13.750,27.365 C13.750,27.716 13.459,28.000 13.100,28.000 L0.650,28.000 C0.291,28.000 -0.000,27.716 -0.000,27.365 L-0.000,0.634 C-0.000,0.284 0.291,-0.000 0.650,-0.000 L32.350,-0.000 C32.709,-0.000 33.000,0.284 33.000,0.634 L33.000,27.365 C33.000,27.716 32.709,28.000 32.350,28.000 ZM17.218,17.796 C18.965,17.494 20.296,16.002 20.296,14.210 C20.296,12.420 18.965,10.928 17.218,10.627 L17.218,17.796 ZM1.300,15.885 L2.613,15.885 L2.613,12.571 L1.300,12.571 L1.300,15.885 ZM1.300,11.302 L3.263,11.302 C3.622,11.302 3.913,11.586 3.913,11.936 L3.913,16.520 C3.913,16.870 3.622,17.154 3.263,17.154 L1.300,17.154 L1.300,19.651 L5.225,19.651 L5.225,8.771 L1.300,8.771 L1.300,11.302 ZM1.300,7.502 L5.875,7.502 C6.234,7.502 6.525,7.786 6.525,8.137 L6.525,11.004 C7.842,11.334 8.828,12.646 8.828,14.210 C8.828,15.069 8.532,15.876 7.995,16.483 C7.590,16.941 7.082,17.248 6.525,17.383 L6.525,20.286 C6.525,20.636 6.234,20.920 5.875,20.920 L1.300,20.920 L1.300,23.865 L15.918,23.865 L15.918,19.079 C13.451,18.766 11.539,16.703 11.539,14.210 C11.539,11.719 13.451,9.656 15.918,9.344 L15.918,4.145 L1.300,4.145 L1.300,7.502 ZM6.525,12.354 L6.525,16.032 C7.114,15.729 7.528,15.027 7.528,14.210 C7.528,13.379 7.114,12.663 6.525,12.354 ZM15.918,17.796 L15.918,10.627 C14.171,10.928 12.839,12.420 12.839,14.210 C12.839,16.002 14.171,17.494 15.918,17.796 ZM31.700,1.269 L1.300,1.269 L1.300,2.876 L31.700,2.876 L31.700,1.269 ZM31.700,20.920 L27.123,20.920 C26.764,20.920 26.473,20.636 26.473,20.286 L26.473,17.383 C25.916,17.248 25.408,16.940 25.004,16.483 C24.467,15.876 24.172,15.069 24.172,14.210 C24.172,12.646 25.157,11.335 26.473,11.004 L26.473,8.137 C26.473,7.786 26.764,7.502 27.123,7.502 L31.700,7.502 L31.700,4.145 L17.218,4.145 L17.218,9.344 C19.685,9.656 21.596,11.719 21.596,14.210 C21.596,16.703 19.685,18.766 17.218,19.079 L17.218,23.865 L31.700,23.865 L31.700,20.920 ZM29.736,17.154 C29.377,17.154 29.086,16.870 29.086,16.520 L29.086,11.937 C29.086,11.586 29.377,11.302 29.736,11.302 L31.700,11.302 L31.700,8.771 L27.773,8.771 L27.773,19.651 L31.700,19.651 L31.700,17.154 L29.736,17.154 ZM31.700,15.885 L31.700,12.571 L30.386,12.571 L30.386,15.885 L31.700,15.885 ZM26.473,16.032 L26.473,12.355 C25.885,12.664 25.472,13.379 25.472,14.210 C25.472,15.026 25.885,15.728 26.473,16.032 ZM16.499,26.731 L16.519,26.731 C16.878,26.731 17.169,27.015 17.169,27.365 C17.169,27.716 16.878,28.000 16.519,28.000 L16.499,28.000 C16.140,28.000 15.849,27.716 15.849,27.365 C15.849,27.015 16.140,26.731 16.499,26.731 Z"/>
</svg>
